public/icon-maintenance.svg

<svg fill="none" height="30" viewBox="0 0 30 30" width="30" xmlns="http://www.w3.org/2000/svg"><path clip-rule="evenodd" d="m15 21.1575c-3.395 0-6.15748-2.7625-6.15748-6.1575s2.76248-6.15747 6.15748-6.15747 6.1575 2.76247 6.1575 6.15747-2.7625 6.1575-6.1575 6.1575zm15-3.7529v-4.8083l-3.7358-.5608c-.2701-1.03-.6798-2.0034-1.2047-2.90125l2.247-3.04003-3.3998-3.40067-3.041 2.24697c-.8978-.52492-1.8702-.93372-2.9012-1.20468l-.5599-3.73584h-4.8092l-.5599 3.73584c-1.031.27096-2.0034.67976-2.90125 1.20468l-3.04098-2.24697-3.39973 3.40067 2.24698 3.04003c-.52492.89785-.93467 1.87125-1.20468 2.90125l-3.73584.5608v4.8083l3.73584.5608c.27001 1.0301.67976 2.0025 1.20468 2.9004l-2.24698 3.0409 3.39973 3.3998 3.04098-2.247c.89785.5249 1.87025.9346 2.90125 1.2047l.5599 3.7358h4.8092l.5599-3.7358c1.031-.2701 2.0034-.6798 2.9012-1.2047l3.041 2.247 3.3998-3.3998-2.247-3.0409c.5249-.8979.9346-1.8703 1.2047-2.9004z" fill="#011580" fill-rule="evenodd"/></svg>

<svg width="30" height="30" viewBox="0 0 30 30" fill="none" xmlns="http://www.w3.org/2000/svg">
<path fill-rule="evenodd" clip-rule="evenodd" d="M15 21.1575C11.605 21.1575 8.84252 18.395 8.84252 15C8.84252 11.605 11.605 8.84253 15 8.84253C18.395 8.84253 21.1575 11.605 21.1575 15C21.1575 18.395 18.395 21.1575 15 21.1575ZM30 17.4046V12.5963L26.2642 12.0355C25.9941 11.0055 25.5844 10.0321 25.0595 9.13425L27.3065 6.09422L23.9067 2.69355L20.8657 4.94052C19.9679 4.4156 18.9955 4.0068 17.9645 3.73584L17.4046 0H12.5954L12.0355 3.73584C11.0045 4.0068 10.0321 4.4156 9.13425 4.94052L6.09327 2.69355L2.69354 6.09422L4.94052 9.13425C4.4156 10.0321 4.00585 11.0055 3.73584 12.0355L0 12.5963V17.4046L3.73584 17.9654C4.00585 18.9955 4.4156 19.9679 4.94052 20.8658L2.69354 23.9067L6.09327 27.3065L9.13425 25.0595C10.0321 25.5844 11.0045 25.9941 12.0355 26.2642L12.5954 30H17.4046L17.9645 26.2642C18.9955 25.9941 19.9679 25.5844 20.8657 25.0595L23.9067 27.3065L27.3065 23.9067L25.0595 20.8658C25.5844 19.9679 25.9941 18.9955 26.2642 17.9654L30 17.4046Z" fill="#011580"/>
</svg>
